X:1
T:Title
%%score [ ( 1 2 ) ( 3 4 ) ]
L:1/8
Q:1/4=100
M:4/4
K:Ab
V:1 treble nm="Midi_74"
V:2 treble 
V:3 bass nm="Midi_69"
V:4 bass 
V:1
"^St Bees (77. 77)""^John Bacchus Dykes\n(1823-76)""^William Cowper\n(1731-1800)""^Hark, my soul! it is the Lord" A2 A2 A3 G | %1
 F2 G2 A4 | B2 B2 c2 E2 | F2 B2 G4 || B2 d2 c3 A | G2 B2 A4 | A2 B2 A2 A2 | A3 G A4 |] %8
V:2
 E2 E2 D3 D | D2 D2 C4 | E2 E2 E2 E2 | E2 D2 B,4 || E2 E2 E3 E | D2 D2 C4 | F2 F2 E2 E2 | %7
w: Hark, my soul! it|is the Lord;|'Tis Thy Sa- viour,|hear His word;||||
w: 'I de- liv- ered|thee when bound,|And, when bleed- ing,|healed thy wound;||||
w: 'Can a wo- man's|ten- der care|Cease to- wards the|child she bare?||||
w: 'Mine is an un-|chang- ing love,|High- er than the|heights a- bove,||||
w: 'Thou shalt see my|glo- ry soon,|When the work of|grace is done;||||
w: Lord, it is my|chief com- plaint|That my love is|weak and faint;||||
 E3 E E4 |] %8
w: |
w: |
w: |
w: |
w: |
w: |
V:3
 C2 C2 B,3 B, | B,2 B,2 C4 | B,2 D2 C2 A,2 | A,2 F,2 B,4 || B,2 B,2 C3 C | B,2 G,2 A,4 | %6
w: ||||Je- sus speaks, and|speaks to thee:|
w: ||||sought thee wander- ing,|set thee right;|
w: ||||Yes, she may for-|get- ful be,|
w: ||||Deep- er than the|depths be- neath,|
w: ||||Part- ner of My|throne shall be;|
w: ||||Yet I love Thee,|and a- dore;|
 D2 D2 C2 (B,A,) | B,3 B, C4 |] %8
w: 'Say, poor sin- ner, *|lov'st thou Me?'|
w: Turned thy dark- ness *|in- to light.'|
w: Yet will I re\- *|mem- ber thee.'|
w: Free and faith- ful, *|strong as death.'|
w: Say, poor sin- ner, *|lov'st thou Me?'|
w: O for grace to *|love Thee more!|
V:4
 A,2 A,2 E,3 E, | E,2 E,2 A,4 | G,2 G,2 A,2 C,2 | D,2 D,2 E,4 || G,2 G,2 A,3 A, | E,2 E,2 F,4 | %6
 D,2 D,2 E,2 E,2 | E,3 E, A,,4 |] %8

